!!!COM: Scriabin, Alexander
!!!OTL: Prelude
!!!OPR: 4 Preludes
!!!OPS: 31
!!!ONM: 2
!!!ODT: 1903
!!!AGN: Prelude
**kern	**kern
*staff2	*staff1
*clefF4	*clefG2
*k[f#c#g#]	*k[f#c#g#]
*f#:	*f#:
*M2/4	*M2/4
16FFF# 16FF#	16A 16d 16f#
=1	=1
4.DD 4.D	4.G# 4.B 4.e
8CC# 8C#	8G# 8c# 8e#X
=2	=2
*	*^
12.FFF#L 12.FF#	[4b	[4G# [4d
24FFF#k 24FF#	.	.
12FFF#J 12FF#	.	.
8.FFF#L 8.FF#	8.bL]	8.G#L] 8.d]
16FFF#Jk 16FF#	48aLL	16AJk 16d
.	48g#	.
.	48f#JJJ	.
*	*v	*v
=3	=3
4.DD 4.D	4.G# 4.B 4.e
8CC# 8C#	8G# 8c# 8e#X
=4	=4
*	*^
12.FFF#L 12.FF#	[4b	[4G# [4d
24FFF#k 24FF#	.	.
12FFF#J 12FF#	.	.
8.FFF#L 8.FF#	8.bL]	8.G#L] 8.d]
16FF#Jk 16F#	16aJk	[16AJk [16d
=5	=5	=5
[4BBB#X [4BB#X	4g#	4A_ 4d_
8.BBB#L] 8.BB#]	8.f#L	8.AL] 8.d]
16CC#Jk 16C#	16eJk	[16AJk
=6	=6	=6
[2FFF##X [2FF##X	4d#X	[2E 2A_
.	[4c#	.
=7	=7	=7
4FFF##] 4FF##]	4E 4A 4c#]	4E] 4A]
*	*clefF4	*
[4GGG# [4GG#	[4Dn [4F# [4B#X	4ryy
*	*v	*v
=8	=8
4GGG#] 4GG#]	4D] 4F#] 4B#]
[4CCC# [4CC#	[4C# [4E#X [4c#
=9	=9
4CCC#] 4CC#]	4C#] 4E#] 4c#]
4GGG# 4GG#	4D 4F# 4B#X
=10	=10
4GGG# 4GG#	4D 4F# 4B#X
8.CCC# 8.CC#	8.C# 8.E#X 8.c#
*	*clefG2
16BBB 16BB	16d 16gn 16b
=11	=11
4.GGn 4.Gn	4.c# 4.e 4.a
8FF# 8F#	8c# 8f# 8a#X
=12	=12
*	*^
12.BBBL 12.BB	[4ee	[4c# [4gn
24BBBk 24BB	.	.
12BBBJ 12BB	.	.
8.BBBL 8.BB	8.eeL]	8.c#L] 8.g]
16BBBJk 16BB	48ddLL	16dJk 16g
.	48cc#	.
.	48bJJJ	.
*	*v	*v
=13	=13
4.GGn 4.Gn	4.c# 4.e 4.a
8FF# 8F#	8c# 8f# 8a#X
=14	=14
*	*^
12.BBBL 12.BB	[4ee	[4c# [4gn
24BBBk 24BB	.	.
12BBBJ 12BB	.	.
8.BBBL 8.BB	8.eeL]	8.c#L] 8.g]
16BBJk 16B	16ddJk	[16dJk [16g
=15	=15	=15
[4EE#X [4E#X	4cc#	4d_ [4g#
8.EE#L] 8.E#]	8.bL	8.dL] 8.g#]
16FF#Jk 16F#	16aJk	[16dJk
=16	=16	=16
[2BBB#X [2BB#X	4g#X	[2A 2d_
.	[4f#	.
=17	=17	=17
4BBB#] 4BB#]	4f#]	4A] 4d]
[4CC# [4C#	[4e#X	[4G# [4c#
=18	=18	=18
4CC#] 4C#]	4e#]	4G#] 4c#]
8.AAA#XL 8.AA#X	8.f#L	8.F#L 8.c#
16BBBJk 16BB	16dJk	[16GnJk
*	*clefF4	*
=19	=19	=19
[4EE#X	4c#	[4D 4G_
8.EE#L]	8.BL	8.DL] 8.G]
16FF#Jk	16AJk	[16DJk
=20	=20	=20
[2BBB#X	4G#X	[2AA 2D_
.	[4F#	.
=21	=21	=21
4BBB#]	4F#]	4AA] 4D] 4F#
[4CC#	4GG# [4C# [4E#X	4ryy
*	*v	*v
=22	=22
4CC#]	4GG# 4C#] 4E#]
[4FFF#	[4FF# [4C# [4F#
=23	=23
4FFF#]	4FF#] 4C#] 4F#]
4CC# 4GG# 4C#	4E#X 4c# 4e#X
=24	=24
4CC# 4GG# 4C#	4E#X 4c# 4e#X
4FFF# 4CC# 4FF# 4C#	4F# 4c# 4f#
==	==
*-	*-
!!!system-decoration: {(*)}
!!!ENC: Bryan Jacob Bell
!!!END: November 2021 to April 2022
!!!PED: Konstantin Igumnov and Yakov Milstein
!!!PTL: A.N. Skryabin: Polnoe sobranie sochinenii dlia fortepiano (Muzgiz)
